@extra/phlat-icons/symbolic/kopete.svg

<?xml version="1.0" encoding="UTF-8" standalone="no"?>
<svg id="svg26" xmlns="http://www.w3.org/2000/svg" version="1.1" viewBox="0 0 16 16"><path id="path10" style="fill:#f1f2f2" d="m1.4551 1c-0.80602 0-1.4551 0.6529-1.4551 1.4629v13.537l4.0723-3.99h10.473c0.806 0 1.455-0.652 1.455-1.463v-8.0841c0-0.81-0.649-1.4629-1.455-1.4629zm4.5449 2h1v1h-1v5h1v1h-1c-1 0-1 0-1-1v-5c0-1 0-1 1-1zm2.1992 2h2.6018c0.111 0 0.199 0.0884 0.199 0.1992v0.6016c0 0.1108-0.088 0.1992-0.199 0.1992h-2.6018c-0.1108 0-0.1992-0.0884-0.1992-0.1992v-0.6016c0-0.1108 0.0884-0.1992 0.1992-0.1992zm0 2h2.6018c0.111 0 0.199 0.0884 0.199 0.1992v0.6016c0 0.1108-0.088 0.1992-0.199 0.1992h-2.6018c-0.1108 0-0.1992-0.0884-0.1992-0.1992v-0.6016c0-0.1108 0.0884-0.1992 0.1992-0.1992z"/></svg>

<svg xmlns="http://www.w3.org/2000/svg" viewBox="0 0 16 16">
    <path d="M1.455 1C.65 1 0 1.653 0 2.463V16l4.072-3.99h10.473c.806 0 1.455-.652 1.455-1.463V2.463C16 1.653 15.351 1 14.545 1zM6 3h1v1H6v5h1v1H6c-1 0-1 0-1-1V4c0-1 0-1 1-1zm2.2 2H10.8c.111 0 .199.088.199.2v.6c0 .112-.088.2-.199.2H8.199C8.09 6 8 5.912 8 5.8v-.6c0-.112.088-.2.2-.2zm0 2H10.8c.111 0 .199.088.199.2v.6c0 .112-.088.2-.199.2H8.199C8.09 8 8 7.912 8 7.8v-.6c0-.112.088-.2.2-.2z" fill="#f1f2f2"/>
</svg>
